src/icons/company.svg

<svg xmlns="http://www.w3.org/2000/svg" width="512" height="512" viewBox="0 0 512 512">
    <path d="M171.3 398.8h64.9v-44.9h39v44.9h64.9V159.1H171.3v239.7zm116.9-214.6h28.1v28.1h-28.1v-28.1zm0 56.7h28.1V269h-28.1v-28.1zm0 56.7h28.1v28.1h-28.1v-28.1zm-46.6-113.4h28.1v28.1h-28.1v-28.1zm0 56.7h28.1V269h-28.1v-28.1zm0 56.7h28.1v28.1h-28.1v-28.1zm-46.5-113.4h28.1v28.1h-28.1v-28.1zm0 56.7h28.1V269h-28.1v-28.1zm0 56.7h28.1v28.1h-28.1v-28.1zM76 398.8h76.1v-180H76v180zm24-157.9h28.1V269H100v-28.1zm0 56.7h28.1v28.1H100v-28.1zm260-78.8v180h76v-180h-76zm52 106.9h-28.1v-28.1H412v28.1zm0-56.7h-28.1v-28.1H412V269zM195 129.6h121.3v19.3H195v-19.3zm25.4-29.4h70.4v19.3h-70.3v-19.3h-.1z"/>
</svg>

<?xml version="1.0" encoding="UTF-8"?>
<svg width="512px" height="512px" viewBox="0 0 512 512" version="1.1" xmlns="http://www.w3.org/2000/svg" xmlns:xlink="http://www.w3.org/1999/xlink">
    <!-- Generator: Sketch 62 (91390) - https://sketch.com -->
    <title>company</title>
    <desc>Created with Sketch.</desc>
    <g id="company" stroke="none" stroke-width="1" fill="none" fill-rule="evenodd">
        <path d="M171.3,398.8 L236.2,398.8 L236.2,353.9 L275.2,353.9 L275.2,398.8 L340.1,398.8 L340.1,159.1 L171.3,159.1 L171.3,398.8 L171.3,398.8 Z M288.2,184.2 L316.3,184.2 L316.3,212.3 L288.2,212.3 L288.2,184.2 Z M288.2,240.9 L316.3,240.9 L316.3,269 L288.2,269 L288.2,240.9 Z M288.2,297.6 L316.3,297.6 L316.3,325.7 L288.2,325.7 L288.2,297.6 L288.2,297.6 Z M241.6,184.2 L269.7,184.2 L269.7,212.3 L241.6,212.3 L241.6,184.2 Z M241.6,240.9 L269.7,240.9 L269.7,269 L241.6,269 L241.6,240.9 Z M241.6,297.6 L269.7,297.6 L269.7,325.7 L241.6,325.7 L241.6,297.6 L241.6,297.6 Z M195.1,184.2 L223.2,184.2 L223.2,212.3 L195.1,212.3 L195.1,184.2 Z M195.1,240.9 L223.2,240.9 L223.2,269 L195.1,269 L195.1,240.9 Z M195.1,297.6 L223.2,297.6 L223.2,325.7 L195.1,325.7 L195.1,297.6 L195.1,297.6 Z M76,398.8 L152.1,398.8 L152.1,218.8 L76,218.8 L76,398.8 Z M100,240.9 L128.1,240.9 L128.1,269 L100,269 L100,240.9 Z M100,297.6 L128.1,297.6 L128.1,325.7 L100,325.7 L100,297.6 L100,297.6 Z M360,218.8 L360,398.8 L436,398.8 L436,218.8 L360,218.8 Z M412,325.7 L383.9,325.7 L383.9,297.6 L412,297.6 L412,325.7 Z M412,269 L383.9,269 L383.9,240.9 L412,240.9 L412,269 Z M195,129.6 L316.3,129.6 L316.3,148.9 L195,148.9 L195,129.6 Z M220.4,100.2 L290.8,100.2 L290.8,119.5 L220.5,119.5 L220.5,100.2 L220.4,100.2 L220.4,100.2 Z" id="Shape" fill="#000000" fill-rule="nonzero"></path>
    </g>
</svg>
